X:482
T: Kan yang ge
N: C0140
O: China,Shanxi, Qitai
S: I, 327 (2)]
N: Anfang wird AUF TB wiederholt. Doublette oder Variante auf Band 19
N: Saengerin: Huang Bai = leicht variiert
R: Tanzlied, Yan ge]
M: 4/4
L: 1/16
K: Eb
z2c2G2GGc2cge2dc | G2
g2edcd | =BcG2-G2
g2 | edcdcdcG
=B2cdc2BG | F2EDC4
cGcgedcG | c2cgedc2
g2edcdcB | GBGFECE2 | F2
G2c2cg | edcFGAG2
cccgedfc | GBFDC4z2
g2e2ee | cdcFGAG2
cccgedfc | GBFDC4- | C8

@@@ Tune index: 6483
